packages/core/src/svgs/tokens/mono/LON.svg

<svg width="24" height="24" viewBox="0 0 24 24" fill="none" xmlns="http://www.w3.org/2000/svg">
<path fill-rule="evenodd" clip-rule="evenodd" d="M12.0603 2C11.7015 2 11.3434 2.01937 10.9865 2.05874C5.93522 2.59125 2.00024 6.83997 2.00024 12.0018C2.00024 17.5237 6.50273 22.0006 12.0603 22H12.0827C13.6831 21.9991 15.2601 21.6162 16.6827 20.8831C17.0889 20.6731 16.9133 20.063 16.4564 20.0762H16.4377C12.4147 20.1774 8.66272 18.4424 7.19147 15.308C6.43648 13.7043 6.15897 12.4 6.79835 10.335C7.00898 9.48871 7.50835 8.70248 8.09022 8.09498C8.13456 8.04127 8.18258 7.99073 8.23397 7.94372C8.26709 7.90935 8.30209 7.87747 8.33897 7.84873C8.35264 7.83406 8.36703 7.82007 8.38209 7.80685C8.39522 7.79686 8.4046 7.78685 8.41835 7.77685C8.44423 7.75125 8.47273 7.72843 8.50334 7.70873C9.49522 6.9056 10.7246 6.37061 12.0034 6.37499C15.0039 6.37499 17.6264 8.82498 17.6264 11.7024C17.6264 12.6912 17.172 13.7305 16.6221 14.5555C19.0215 13.7324 20.7214 11.44 20.7209 8.8556C20.7209 7.38498 20.1633 6.03935 19.237 4.9981C18.8487 4.6022 18.4278 4.23948 17.9789 3.91374L17.9753 3.91061C16.2597 2.66807 14.1953 1.99937 12.077 2H12.0603Z" fill="white"/>
<path fill-rule="evenodd" clip-rule="evenodd" d="M20.6686 8.88005C20.6708 10.1048 20.2954 11.3005 19.5933 12.3041C18.8912 13.3077 17.8968 14.0704 16.7456 14.4882C16.1022 14.7221 15.4226 14.841 14.738 14.8394C12.5368 14.8394 10.6174 13.6351 9.59423 11.8425C9.34428 11.4056 9.14798 10.6632 9.01491 10.0319C8.88992 9.43322 8.10491 9.27689 7.75929 9.78191C7.23804 10.535 7.24055 11.6656 7.33117 12.5313C7.33027 12.5402 7.33133 12.5491 7.33429 12.5575C7.36554 12.872 7.42179 13.1826 7.50305 13.4875C7.60054 13.8889 7.73616 14.28 7.90679 14.6562C9.15805 17.4518 11.9768 19.2307 15.6693 18.9319C16.0342 18.9019 16.3806 18.79 16.7393 18.7169C19.7855 18.0769 21.9811 15.325 21.9999 12.085C21.9999 9.48499 21.0323 6.92881 19.2462 5.02881C20.1636 6.10228 20.6681 7.46791 20.6686 8.88005Z" fill="white"/>
</svg>

<svg xmlns="http://www.w3.org/2000/svg" width="24" height="24" fill="none" viewBox="0 0 24 24">
    <path fill="#fff" fill-rule="evenodd" d="M12.06 2q-.539 0-1.074.059C5.937 2.59 2 6.84 2 12.002 2 17.524 6.503 22 12.06 22h.023c1.6 0 3.177-.384 4.6-1.117.406-.21.23-.82-.227-.807h-.018c-4.023.101-7.775-1.634-9.247-4.768-.755-1.604-1.032-2.908-.393-4.973.211-.846.71-1.633 1.292-2.24q.068-.08.144-.151a1 1 0 0 1 .105-.095l.043-.042.036-.03a.5.5 0 0 1 .085-.068c.992-.803 2.222-1.338 3.5-1.334 3 0 5.623 2.45 5.623 5.327 0 .99-.454 2.028-1.004 2.854 2.4-.824 4.1-3.116 4.099-5.7a5.78 5.78 0 0 0-1.484-3.858 10 10 0 0 0-1.258-1.084l-.004-.003A10.05 10.05 0 0 0 12.077 2z" clip-rule="evenodd"/>
    <path fill="#fff" fill-rule="evenodd" d="M20.669 8.88a5.955 5.955 0 0 1-3.923 5.608 5.916 5.916 0 0 1-7.151-2.646c-.25-.436-.447-1.179-.58-1.81a.696.696 0 0 0-1.256-.25c-.521.753-.518 1.884-.428 2.75q0 .012.003.025.048.473.17.93.146.604.403 1.17c1.251 2.795 4.07 4.574 7.762 4.275.365-.03.712-.142 1.07-.215 3.046-.64 5.242-3.392 5.26-6.632 0-2.6-.967-5.156-2.753-7.056A5.93 5.93 0 0 1 20.67 8.88" clip-rule="evenodd"/>
</svg>
